X: 9
T: Rickett's
Z: Christian Messier
S: https://thesession.org/tunes/272#setting49112
R: hornpipe
M: 4/4
L: 1/8
K: Dmaj
(3ABc|:dcdA FAdf|edcB A2g2|fgaf gfed|edcB Agfe|
dcdA FAdf|edcB A2g2|fafd ege2|1 d2d2d2(3ABc:|2 d2d2d2fg||
|:afafd2ga|bgbge2fg|afba gfed|edcB Agfe|
dcdA FAdf|edcBA2g2|fafd egec|1 d2d2d2fg:|2 d2d2d2(3ABc||

